X:1
T:Title
%%score { ( 1 3 4 ) | ( 2 5 ) }
L:1/8
M:4/4
K:Eb
V:1 treble nm="Grand Piano"
V:3 treble 
V:4 treble 
V:2 bass 
V:5 bass 
V:1
 z4 z2[Q:1/4=100] B2 | E3 F G2 A2 | B2 c2 B2 A2 | G2 G2 [DG]2 [DF]2 |[M:3/4] E6 |[M:1/4] G2 | %6
[M:4/4] B6 A2 | e2 e2 e2 e2 | d6 z2 | c2 c2 c2 c2 | B6 z2 | B,-[B,-F][B,-G][B,-A] [B,B]2 [EAc]2 | %12
 [Ee]-[E-Ge-][E-Ae-][EBe-] [ce]2 [Af]2 | z4 d4 |[M:3/4] [Ge]6 |] %15
V:2
 z4 z2 B,2 | E,3 F, G,2 A,2 | [G,B,E]2 [A,E]2 [G,B,E]2 [A,CF]2 | %3
 [B,E]2[K:bass] [B,E]2 [B,,B,]2 [B,,A,]2 |[M:3/4] [E,G,]6 |[M:1/4] z2 | %6
[M:4/4] z2 [G,B,]2 [F,B,]2 [B,,B,]2 | [C,G,]4 [C,C]4 | [G,=B,G]2 [G,B,]2 [G,B,]2 [G,B,F]2 | %9
 [A,E]4[K:bass] [A,E]4 | [G,B,E]2 [F,A,]E, F,2 B,,2 | z[K:treble] DEF G2[K:bass] E,2 | %12
 G,E,F,G, A,2 [F,C]2 | B,2 B,2 [B,,B,]2 [B,,B,]2 |[M:3/4] [E,B,]6 |] %15
V:3
 x8 | x8 | x8 | x8 |[M:3/4] x6 |[M:1/4] x2 |[M:4/4] z2 E2 D2 cd | G4 G4 | z2 G2 F2 G2 | x8 | %10
 z2 E2 z4 | .[EG]2 z2 z4 | .B2 z2 z4 | [Ge]4 F2 A2 |[M:3/4] x6 |] %15
V:4
 x8 | x8 | x8 | x8 |[M:3/4] x6 |[M:1/4] x2 |[M:4/4] x8 | x8 | x8 | x8 | z2 z G, [A,D]2 [B,DA]2 | %11
 x8 | x8 | x8 |[M:3/4] x6 |] %15
V:5
 x8 | x8 | x8 | x2[K:bass] x6 |[M:3/4] x6 |[M:1/4] x2 |[M:4/4] x8 | x8 | x8 | x4[K:bass] x4 | x8 | %11
 E,6[K:treble][K:bass] z2 | x8 | x8 |[M:3/4] x6 |] %15

